media/icons/ethereum.svg

<svg width="40" height="40" viewBox="0 0 40 40" fill="none" xmlns="http://www.w3.org/2000/svg">
  <path opacity="0.1" d="M20 40C8.9543 40 0 31.0457 0 20C0 8.9543 8.9543 0 20 0C31.0457 0 40 8.9543 40 20C40 31.0457 31.0457 40 20 40Z" fill="#6B8CEF"/>
  <path
    fillRule="evenodd"
    clipRule="evenodd"
    d="M28.7497 20.2746L19.3775 5V16.0875L27.5829 19.7536L19.3775 16.0897V25.7159L28.7497 20.2749L28.75 20.275L28.7499 20.2748L28.75 20.2747L28.7497 20.2746ZM19.375 16.0875V5L10.004 20.2746L10.0038 20.2747L10.0039 20.2748L10.0038 20.275L10.0041 20.2749L19.375 25.7159V16.0897L11.1707 19.7536L19.375 16.0875ZM19.375 27.4599V34.9936L9.99752 22.0199L19.375 27.4599ZM19.3775 27.4586V34.9936L28.75 22.0199L19.3775 27.4586Z"
    fill="#6B8CEF"
  />
</svg>

<svg width="40" height="40" viewBox="0 0 40 40" fill="none" xmlns="http://www.w3.org/2000/svg"><path opacity=".1" d="M20 40C8.954 40 0 31.046 0 20S8.954 0 20 0s20 8.954 20 20-8.954 20-20 20z" fill="#6B8CEF"/><path d="M28.75 20.275L19.378 5v11.087l8.205 3.667-8.205-3.664v9.626l9.372-5.441zm-9.375-4.188V5l-9.371 15.275 9.371 5.44V16.09l-8.204 3.664 8.204-3.667zm0 11.373v7.534L9.998 22.02l9.377 5.44zm.003-.001v7.535L28.75 22.02l-9.372 5.439z" fill="#6B8CEF"/></svg>
